X:1
T:Title
%%score 1 { 2 | 3 }
L:1/8
Q:1/4=145
M:6/4
K:F
V:1 treble nm="Grand Piano, Soprano"
V:2 treble nm="Choir Pad, What Are You Doing 4 Them"
V:3 bass 
V:1
 [FA]2 [F_A]2 [F=A]2 [Fc]2 [FA]2 [CF]2 | [CF]2 [CE]2 [CE]2 [CE]6 | %2
w: By~Mrs.~H.~S.~Lehman * * * * *||
 [EB]2 [B,D]2 [B,E]2 [B,C]2 [B,E]2 [B,D]2 | [A,C]2 [CF]2 [CG]2 [CA]6 | %4
w: ||
 [FA]2 [FA]2 [FA]2 [_EA]2 [EG]2 [EF]2 | [DB]2 [DB]2 [DB]2 [B,D]6 | %6
w: ||
 [B,C]2 [CE]2 C2 [EB]2 [FA]2 [CG]2 | [CF]12 | [Ec]2 [Ec]2 [EG]2 [Ec] .[Ec]3 [EG]2 | %9
w: |||
 [FA]2 [_Ad]2 [A=B]2 [=Ac]4 [FA]2 | [EG] .[EG]3 [CE]2 [EG] .[EG]3 [Cc]2 | %11
w: ||
 [EG]2 [DF]2 [=B,D]2 [_B,G]6 | [CA]2 [FA]2 [FA]2 [_EA]2 [EG]2 [EF]2 | %13
w: ||
 [DB]2 [DF]2 [FG]2 [EA]4 [GA]2 | [^Fd]2 [Fc]2 [FA]2 [Ac]2 [GB]2 G2 | [FA]2 [EA]2 [EG]2 [CF]6- | %16
w: |||
 [CF]6 z6 |] %17
w: |
V:2
 C2 =B,2 C2 A,2 C2[K:bass] A,2 | B,2 B,2 B,2 B,6 | G,2 G,2 G,2 E,2 G,2 E,2 | F,2 F,2 E,2 F,6 | %4
 C2 C2 C2 C2 B,2[K:bass] A,2 | B,2 F,2 F,2 F,6 | E,2 G,2 E,2 D2 C2 B,2 | A,12 | %8
 G,2 G,2 C2 G, .G,3[K:treble] C2 | C2 =B,2 D2 C4 C2 | C .C3 G,2 C .C3[K:bass] G,2 | %11
 G,2 =B,2 G,2 E,2 F,2 G,2 | F,2[K:treble] C2 C2 C2 B,2 A,2 | B,2 B,2 D2 ^C4 A,2 | %14
 A,2 A,2[K:treble] D2 D2 D2 D2 | C2 C2[K:bass] B,2 A,6- | A,6 z6 |] %17
V:3
 F,2 F,2 F,2 F,2 F,2 F,2 | G,2 G,2 G,2 G,6 | C,2 C,2 C,2 C,2 C,2 C,2 | z2 A,,2 C,2 z6 | %4
 F,2 F,2 F,2 F,2 F,2 F,2 | B,,2 B,,2 B,,2 B,,6 | C,2 C,2 C,2 C,2 C,2 C,2 | F,12 | %8
 C,2 C,2 C,2 C, .C,3 C,2 | F,2 F,2 F,2 F,4 F,2 | C, .C,3 C,2 C, .C,3 E,2 | z2 .G,4 C,2 D,2 E,2 | %12
 z2 F,2 F,2 F,2 F,2 F,2 | B,,2 B,,2 B,,2 .A,,6 | D,2 D,2 D,2 G,2 G,2 B,,2 | C,2 C,2 C,2 F,6- | %16
 F,6 z6 |] %17

